X:1
T:In The Deep Silence Of The Wood  "To be played at app. 35 bpm"
M:C|
L:1/8
Q:80
C:Trad.
S:Slow Air
K:HP
{g}A/2{d}c/2 |: \
{g}e{A}e{g}e{gef}e/2f/2 | \
{g}e{A}e/2c/2{G}A{g}A/2B/2 |
{GdG}c{gcd}c/2d/2{gBd}B{GdG}c | \
{g}A2{GAG}A :| \
{g}A/2{d}c/2[ |
{g}e{A}e{g}e{gef}e | \
{ag}a3/2f/2{gef}ef | \
{Gdc}d{g}d{gdG}de |
{gcd}c2{GdG}c{e}A | \
{g}f{e}f{gfg}f{GdG}f | \
{gef}e3/2c/2{G}A{g}A/2B/2 |
{GdG}c{gcd}c/2d/2{gBd}B{GdG}c | \
{g}A2{GAG}A|]
